symbols/web/nest_wifi_mistral/materialsymbolsoutlined/nest_wifi_mistral_wght700grad200_40px.svg

<svg xmlns="http://www.w3.org/2000/svg" height="40" width="40"><path d="M14.625 36.208q-4.5 0-7.667-3.166-3.166-3.167-3.166-7.667V14.583q0-4.5 3.166-7.666 3.167-3.167 7.667-3.167h10.792q4.5 0 7.666 3.188 3.167 3.187 3.167 7.645v10.792q0 4.5-3.188 7.667-3.187 3.166-7.645 3.166ZM8.208 23.625h23.584v-9.083q0-2.625-1.875-4.479-1.875-1.855-4.5-1.855H14.583q-2.666 0-4.521 1.855-1.854 1.854-1.854 4.479Zm.334 3.917q.625 2 2.291 3.125 1.667 1.125 3.75 1.125h10.834q2.041 0 3.729-1.125 1.687-1.125 2.312-3.125ZM20 23.625Z"/></svg>

<svg xmlns="http://www.w3.org/2000/svg" height="40" width="40"><path d="M14.625 36.208Q10.125 36.208 6.958 33.042Q3.792 29.875 3.792 25.375V14.583Q3.792 10.083 6.958 6.917Q10.125 3.75 14.625 3.75H25.417Q29.917 3.75 33.083 6.938Q36.25 10.125 36.25 14.583V25.375Q36.25 29.875 33.062 33.042Q29.875 36.208 25.417 36.208ZM8.208 23.625H31.792V14.542Q31.792 11.917 29.917 10.063Q28.042 8.208 25.417 8.208H14.583Q11.917 8.208 10.062 10.063Q8.208 11.917 8.208 14.542ZM8.542 27.542Q9.167 29.542 10.833 30.667Q12.5 31.792 14.583 31.792H25.417Q27.458 31.792 29.146 30.667Q30.833 29.542 31.458 27.542ZM20 23.625Q20 23.625 20 23.625Q20 23.625 20 23.625Q20 23.625 20 23.625Q20 23.625 20 23.625Q20 23.625 20 23.625Q20 23.625 20 23.625Q20 23.625 20 23.625Q20 23.625 20 23.625Q20 23.625 20 23.625Q20 23.625 20 23.625Q20 23.625 20 23.625Q20 23.625 20 23.625Z"/></svg>
